dist/images/nav-pay.svg

<svg width="24" height="24" viewBox="0 0 24 24" fill="none" xmlns="http://www.w3.org/2000/svg">
<path d="M23.9712 12.6847L22.1565 2.52763C21.9963 1.63091 21.2061 1 20.3144 1C20.2064 1 4.42252 3.73685 4.42252 3.73685C3.40392 3.91412 2.72377 4.87274 2.90339 5.87799L3.07833 6.8572H17.3234C19.1305 6.8572 20.6008 8.30818 20.6008 10.0917V15.1479L22.4521 14.8257C23.4707 14.6485 24.1509 13.6899 23.9712 12.6847ZM19.1962 15.9183H0V20.1517C0 21.1725 0.8385 22 1.8728 22H17.3234C18.3577 22 19.1962 21.1725 19.1962 20.1517V15.9183ZM5.57564 20.3348H2.38955C2.0017 20.3348 1.68727 20.0245 1.68727 19.6417C1.68727 19.2589 2.0017 18.9486 2.38955 18.9486H5.57564C5.96349 18.9486 6.27793 19.2589 6.27793 19.6417C6.27793 20.0245 5.96353 20.3348 5.57564 20.3348Z" fill="#D5DFF2"/>
<path d="M0.0022734 9.67744H18.9977C18.9505 8.74345 18.1397 8 17.1463 8H1.85366C0.860228 8 0.0494117 8.74345 0.0022734 9.67744ZM0 11H19V14H0V11Z" fill="#D5DFF2"/>
</svg>

<svg width="24" height="24" fill="none" xmlns="http://www.w3.org/2000/svg"><path d="M23.971 12.685L22.157 2.528A1.867 1.867 0 0020.314 1C20.206 1 4.423 3.737 4.423 3.737a1.85 1.85 0 00-1.52 2.141l.175.98h14.245c1.808 0 3.278 1.45 3.278 3.234v5.056l1.851-.322a1.85 1.85 0 001.52-2.141zm-4.775 3.233H0v4.234C0 21.172.839 22 1.873 22h15.45c1.035 0 1.873-.828 1.873-1.848v-4.234zm-13.62 4.417H2.39a.698.698 0 01-.703-.693c0-.383.315-.693.703-.693h3.186c.387 0 .702.31.702.693a.698.698 0 01-.702.693z" fill="#D5DFF2"/><path d="M.002 9.677h18.996C18.95 8.743 18.14 8 17.146 8H1.854C.86 8 .049 8.743.002 9.677zM0 11h19v3H0v-3z" fill="#D5DFF2"/></svg>
